dist/intermediate-svg/calendar--erp.svg

<?xml version="1.0" encoding="utf-8"?><svg width="12" height="12" fill="none" xmlns="http://www.w3.org/2000/svg" viewBox="0 0 12 12"><path d="M5.21739 7.04348V7.56522C5.21739 7.72174 5.11304 7.82609 4.95652 7.82609H4.43478C4.27826 7.82609 4.17391 7.72174 4.17391 7.56522V7.04348C4.17391 6.88696 4.27826 6.78261 4.43478 6.78261H4.95652C5.11304 6.78261 5.21739 6.88696 5.21739 7.04348ZM4.95652 8.86957H4.43478C4.27826 8.86957 4.17391 8.97391 4.17391 9.13043V9.65217C4.17391 9.8087 4.27826 9.91304 4.43478 9.91304H4.95652C5.11304 9.91304 5.21739 9.8087 5.21739 9.65217V9.13043C5.21739 8.97391 5.11304 8.86957 4.95652 8.86957ZM4.95652 4.69565H4.43478C4.27826 4.69565 4.17391 4.8 4.17391 4.95652V5.47826C4.17391 5.63478 4.27826 5.73913 4.43478 5.73913H4.95652C5.11304 5.73913 5.21739 5.63478 5.21739 5.47826V4.95652C5.21739 4.8 5.11304 4.69565 4.95652 4.69565ZM7.04348 8.86957H6.52174C6.36522 8.86957 6.26087 8.97391 6.26087 9.13043V9.65217C6.26087 9.8087 6.36522 9.91304 6.52174 9.91304H7.04348C7.2 9.91304 7.30435 9.8087 7.30435 9.65217V9.13043C7.30435 8.97391 7.2 8.86957 7.04348 8.86957ZM2.86957 6.78261H2.34783C2.1913 6.78261 2.08696 6.88696 2.08696 7.04348V7.56522C2.08696 7.72174 2.1913 7.82609 2.34783 7.82609H2.86957C3.02609 7.82609 3.13043 7.72174 3.13043 7.56522V7.04348C3.13043 6.88696 3.02609 6.78261 2.86957 6.78261ZM2.86957 8.86957H2.34783C2.1913 8.86957 2.08696 8.97391 2.08696 9.13043V9.65217C2.08696 9.8087 2.1913 9.91304 2.34783 9.91304H2.86957C3.02609 9.91304 3.13043 9.8087 3.13043 9.65217V9.13043C3.13043 8.97391 3.02609 8.86957 2.86957 8.86957ZM9.13043 4.69565H8.6087C8.45217 4.69565 8.34783 4.8 8.34783 4.95652V5.47826C8.34783 5.63478 8.45217 5.73913 8.6087 5.73913H9.13043C9.28696 5.73913 9.3913 5.63478 9.3913 5.47826V4.95652C9.3913 4.8 9.28696 4.69565 9.13043 4.69565ZM9.13043 6.78261H8.6087C8.45217 6.78261 8.34783 6.88696 8.34783 7.04348V7.56522C8.34783 7.72174 8.45217 7.82609 8.6087 7.82609H9.13043C9.28696 7.82609 9.3913 7.72174 9.3913 7.56522V7.04348C9.3913 6.88696 9.28696 6.78261 9.13043 6.78261ZM7.04348 6.78261H6.52174C6.36522 6.78261 6.26087 6.88696 6.26087 7.04348V7.56522C6.26087 7.72174 6.36522 7.82609 6.52174 7.82609H7.04348C7.2 7.82609 7.30435 7.72174 7.30435 7.56522V7.04348C7.30435 6.88696 7.2 6.78261 7.04348 6.78261ZM7.04348 4.69565H6.52174C6.36522 4.69565 6.26087 4.8 6.26087 4.95652V5.47826C6.26087 5.63478 6.36522 5.73913 6.52174 5.73913H7.04348C7.2 5.73913 7.30435 5.63478 7.30435 5.47826V4.95652C7.30435 4.8 7.2 4.69565 7.04348 4.69565ZM11.4783 1.04348V10.9565C11.4783 11.5304 11.0087 12 10.4348 12H1.04348C0.469565 12 0 11.5304 0 10.9565V1.04348C0 0.469565 0.469565 0 1.04348 0V0.782609C1.04348 0.93913 1.14783 1.04348 1.30435 1.04348H1.82609C1.98261 1.04348 2.08696 0.93913 2.08696 0.782609V0.26087C2.08696 0.104348 2.1913 0 2.34783 0H2.86957C3.02609 0 3.13043 0.104348 3.13043 0.26087V0.782609C3.13043 0.93913 3.23478 1.04348 3.3913 1.04348H3.91304C4.06957 1.04348 4.17391 0.93913 4.17391 0.782609V0.26087C4.17391 0.104348 4.27826 0 4.43478 0H4.95652C5.11304 0 5.21739 0.104348 5.21739 0.26087V0.782609C5.21739 0.93913 5.32174 1.04348 5.47826 1.04348H6C6.15652 1.04348 6.26087 0.93913 6.26087 0.782609V0.26087C6.26087 0.104348 6.36522 0 6.52174 0H7.04348C7.2 0 7.30435 0.104348 7.30435 0.26087V0.782609C7.30435 0.93913 7.4087 1.04348 7.56522 1.04348H8.08696C8.24348 1.04348 8.34783 0.93913 8.34783 0.782609V0.26087C8.34783 0.104348 8.45217 0 8.6087 0H9.13043C9.28696 0 9.3913 0.104348 9.3913 0.26087V0.782609C9.3913 0.93913 9.49565 1.04348 9.65217 1.04348H10.1739C10.3304 1.04348 10.4348 0.93913 10.4348 0.782609V0C11.0087 0 11.4783 0.469565 11.4783 1.04348ZM10.4348 10.9565V3.65217H1.04348V10.9565H10.4348Z" fill="#0094FF"/></svg>

<?xml version="1.0" encoding="utf-8"?><svg width="12" height="12" fill="none" xmlns="http://www.w3.org/2000/svg" viewBox="0 0 12 12"><path d="M5.217 7.043v.522c0 .157-.104.261-.26.261h-.522c-.157 0-.261-.104-.261-.26v-.523c0-.156.104-.26.26-.26h.523c.156 0 .26.104.26.26zm-.26 1.827h-.522c-.157 0-.261.104-.261.26v.522c0 .157.104.261.26.261h.523c.156 0 .26-.104.26-.26V9.13c0-.156-.104-.26-.26-.26zm0-4.174h-.522c-.157 0-.261.104-.261.26v.522c0 .157.104.261.26.261h.523c.156 0 .26-.104.26-.26v-.522c0-.157-.104-.261-.26-.261zM7.043 8.87h-.521c-.157 0-.261.104-.261.26v.522c0 .157.104.261.26.261h.522c.157 0 .261-.104.261-.26V9.13c0-.156-.104-.26-.26-.26zM2.87 6.783h-.522c-.157 0-.261.104-.261.26v.522c0 .157.104.261.26.261h.523c.156 0 .26-.104.26-.26v-.523c0-.156-.104-.26-.26-.26zm0 2.087h-.522c-.157 0-.261.104-.261.26v.522c0 .157.104.261.26.261h.523c.156 0 .26-.104.26-.26V9.13c0-.156-.104-.26-.26-.26zm6.26-4.174H8.61c-.157 0-.261.104-.261.26v.522c0 .157.104.261.26.261h.522c.157 0 .261-.104.261-.26v-.522c0-.157-.104-.261-.26-.261zm0 2.087H8.61c-.157 0-.261.104-.261.26v.522c0 .157.104.261.26.261h.522c.157 0 .261-.104.261-.26v-.523c0-.156-.104-.26-.26-.26zm-2.087 0h-.521c-.157 0-.261.104-.261.26v.522c0 .157.104.261.26.261h.522c.157 0 .261-.104.261-.26v-.523c0-.156-.104-.26-.26-.26zm0-2.087h-.521c-.157 0-.261.104-.261.26v.522c0 .157.104.261.26.261h.522c.157 0 .261-.104.261-.26v-.522c0-.157-.104-.261-.26-.261zm4.435-3.653v9.913c0 .574-.47 1.044-1.043 1.044H1.043C.47 12 0 11.53 0 10.957V1.043C0 .47.47 0 1.043 0v.783c0 .156.105.26.261.26h.522c.157 0 .261-.104.261-.26V.26c0-.157.104-.261.26-.261h.523c.156 0 .26.104.26.26v.523c0 .156.105.26.261.26h.522c.157 0 .26-.104.26-.26V.26c0-.157.105-.261.262-.261h.522c.156 0 .26.104.26.26v.523c0 .156.105.26.261.26H6c.157 0 .26-.104.26-.26V.26c0-.157.105-.261.262-.261h.521c.157 0 .261.104.261.26v.523c0 .156.105.26.261.26h.522c.156 0 .26-.104.26-.26V.26c0-.157.105-.261.262-.261h.521c.157 0 .261.104.261.26v.523c0 .156.105.26.261.26h.522c.156 0 .26-.104.26-.26V0c.575 0 1.044.47 1.044 1.043zm-1.043 9.913V3.652H1.043v7.304h9.392z" fill="#0094FF"/></svg>
